X:82
T:The Flower of the Thorn
M:3/4
L:1/8
S:Brian McNeill
H:Welsh, from Jones c.1812
K:A Minor
E2|A4    B2|c2 B2 A2|e2 dc`BA| B4 E2|A2 Ac`Bd|c2 B2 A2|^G2^GB`Ac|B4   :|
B2|c3  B c2|d3  c d2|e4    f2| e4 ed|cB`cd c2|dc`de d2| ed`ed`ef|g3 fed|
   cB`cd`ec|dc`de`fd|e2 e2 a2|^g4 b2|a2 e2 c2|f2 e2 d2| c2 dc`Bc|A4   |]
